images/icons/benefits-quality.svg

<svg width="54" height="71" viewBox="0 0 54 71" fill="none" xmlns="http://www.w3.org/2000/svg">
<path d="M26.9999 0.00585938C26.0158 0.00585938 25.032 0.378017 24.287 1.12305L22.2577 3.1543L19.6053 2.05469H19.6034C17.6565 1.24931 15.3984 2.18397 14.5916 4.13086L14.5858 4.14062L13.4764 7H10.8377C8.73108 7 6.99985 8.73015 6.99985 10.8379V13.4766L4.14243 14.5879L4.13266 14.5918C2.18592 15.3985 1.24765 17.6582 2.05454 19.6055L3.15415 22.2578L1.12485 24.2871C-0.36638 25.777 -0.365942 28.2227 1.1229 29.7129L3.15219 31.7422L2.05258 34.3945V34.3965C1.24721 36.3434 2.18382 38.6015 4.13071 39.4082L4.14048 39.4121L6.99985 40.5234V44.1621C6.99985 46.2694 8.73043 48 10.8377 48H10.9393L4.40219 63.1836L14.5135 62.0605L20.3631 70.6074L27.0057 54.9883L33.6366 70.6094L39.4862 62.0605L49.6092 63.1855L42.4569 46.8359H42.9999C45.1065 46.8359 46.8377 45.1058 46.8377 42.998V40.5352L49.8514 39.4141L49.869 39.4082C51.8157 38.6015 52.7521 36.3418 51.9452 34.3945L50.8456 31.7422L52.8768 29.7129C54.3669 28.2228 54.3669 25.7752 52.8768 24.2852L50.8456 22.2559L51.9452 19.6035C52.7505 17.6566 51.8159 15.3966 49.869 14.5898L49.8592 14.5859L46.9999 13.4766V10.8379C46.9999 8.731 45.2699 7 43.162 7H40.5233L39.412 4.14062L39.4081 4.13086C38.6014 2.18412 36.3417 1.2478 34.3944 2.05469L31.742 3.1543L29.7127 1.12305C28.9677 0.378017 27.9839 0.00585938 26.9999 0.00585938ZM26.9999 1.99414C27.4678 1.99414 27.9357 2.17609 28.2987 2.53906L31.2733 5.51172L35.16 3.90234C36.1087 3.50923 37.1671 3.94723 37.5604 4.89648L39.1561 9H43.162C44.19 9 44.9999 9.81078 44.9999 10.8379V14.8438L49.1034 16.4375C50.0525 16.8308 50.4901 17.8888 50.0975 18.8379L48.4881 22.7246L51.4608 25.6992C52.1867 26.4252 52.1867 27.5729 51.4608 28.2988L48.4881 31.2715L50.0975 35.1602C50.4902 36.1079 50.0526 37.1643 49.1053 37.5586L44.8377 39.1445V42.998C44.8377 44.0243 44.0252 44.8359 42.9999 44.8359H39.1444L37.5584 49.1035C37.1643 50.0507 36.1082 50.4899 35.16 50.0977L31.2733 48.4863L28.2987 51.4609C27.5727 52.1869 26.427 52.1869 25.701 51.4609L22.7264 48.4863L18.8397 50.0977C17.891 50.4908 16.8326 50.0508 16.4393 49.1016L16.4178 49.0527L14.7538 46H10.8377C9.81105 46 8.99985 45.1888 8.99985 44.1621V39.1562L4.89634 37.5605C3.94723 37.1673 3.50761 36.1093 3.90024 35.1602L5.51157 31.2734L2.53696 28.2988C1.81185 27.5731 1.8121 26.4273 2.53891 25.7012L5.51352 22.7266L3.90219 18.8398C3.50908 17.8911 3.94903 16.8328 4.89829 16.4395L8.99985 14.8438V10.8379C8.99985 9.81163 9.8124 9 10.8377 9H14.8456L16.4393 4.89648C16.8326 3.94738 17.8906 3.50972 18.8397 3.90234L22.7264 5.51172L25.701 2.53906C26.064 2.17609 26.5319 1.99414 26.9999 1.99414ZM28.1288 8.05664L27.328 8.45898L27.1698 9.33984L27.7811 9.99414L28.1288 10.0566L28.9295 9.65625L29.0877 8.77344L28.4764 8.11914L28.1288 8.05664ZM23.6268 8.32617L22.826 8.72852L22.6678 9.60938L23.2811 10.2637L23.6268 10.3262L24.4295 9.92578L24.5858 9.04297L23.9745 8.38867L23.6268 8.32617ZM32.5604 8.88477L31.7596 9.28711L31.6014 10.168L32.2127 10.8223L32.5604 10.8848L33.3612 10.4844L33.5194 9.60156L32.9081 8.94727L32.5604 8.88477ZM19.3436 9.72852L18.5428 10.1289L18.3846 11.0117L18.9959 11.666L19.3436 11.7285L20.1444 11.3262L20.3026 10.4453L19.6893 9.78906L19.3436 9.72852ZM36.6366 10.8145L35.8358 11.2168L35.6776 12.0977L36.2889 12.752L36.6366 12.8145L37.4374 12.4141L37.5956 11.5312L36.9842 10.877L36.6366 10.8145ZM15.5272 12.1309L14.7264 12.5332L14.5682 13.4141L15.1795 14.0703L15.5272 14.1309L16.328 13.7305L16.4862 12.8477L15.8729 12.1934L15.5272 12.1309ZM40.1073 13.6895L39.3065 14.0918L39.1483 14.9746L39.7616 15.6289L40.1073 15.6895L40.9081 15.2891L41.0663 14.4062L40.4549 13.752L40.1073 13.6895ZM12.451 15.4316L11.6502 15.832L11.492 16.7148L12.1053 17.3691L12.451 17.4316L13.2538 17.0293L13.41 16.1465L12.7987 15.4922L12.451 15.4316ZM42.7713 17.3301L41.9706 17.7305L41.8124 18.6133L42.4256 19.2676L42.7713 19.3301L43.5741 18.9277L43.7303 18.0449L43.119 17.3906L42.7713 17.3301ZM36.9393 18.9395L23.9999 31.8789L17.0604 24.9395L14.9393 27.0605L23.9999 36.1211L39.0604 21.0605L36.9393 18.9395ZM10.2733 19.377L9.47251 19.7793L9.3143 20.6602L9.92758 21.3164L10.2733 21.377L11.0741 20.9766L11.2323 20.0938L10.6209 19.4395L10.2733 19.377ZM44.4178 21.5273L43.6151 21.9297L43.4588 22.8105L44.0702 23.4648L44.4178 23.5273L45.2186 23.127L45.3768 22.2441L44.7635 21.5898L44.4178 21.5273ZM9.1561 23.7461L8.35532 24.1465L8.19712 25.0293L8.80844 25.6836L9.1561 25.7461L9.95688 25.3438L10.1151 24.4629L9.50376 23.8086L9.1561 23.7461ZM44.9999 26L44.1991 26.4004V26.4023L44.0409 27.2832L44.6522 27.9375L44.9999 28L45.8006 27.5977L45.9588 26.7168L45.3475 26.0625L44.9999 26ZM9.1561 28.2539L8.35532 28.6562L8.19712 29.5371L8.80844 30.1914L9.1561 30.2539L9.95688 29.8535L10.1151 28.9707L9.50376 28.3164L9.1561 28.2539ZM44.4178 30.4727L43.6151 30.873L43.4588 31.7559L44.0702 32.4102L44.4178 32.4727L45.2186 32.0703L45.3768 31.1895L44.7635 30.5352L44.4178 30.4727ZM10.2733 32.623L9.47251 33.0234L9.3143 33.9062L9.92758 34.5605L10.2733 34.623L11.0741 34.2207L11.2323 33.3398L10.6209 32.6855L10.2733 32.623ZM42.7713 34.6699L41.9706 35.0723L41.8124 35.9531L42.4256 36.6074L42.7713 36.6699L43.5741 36.2695L43.7303 35.3867L43.119 34.7324L42.7713 34.6699ZM12.451 36.5684L11.6502 36.9707L11.492 37.8535L12.1053 38.5078L12.451 38.5684L13.2538 38.168L13.41 37.2852L12.7987 36.6309L12.451 36.5684ZM40.1073 38.3086L39.3065 38.7109L39.1483 39.5938L39.7616 40.248L40.1073 40.3086L40.91 39.9082L41.0663 39.0254L40.4549 38.3711L40.1073 38.3086ZM15.5272 39.8691L14.7264 40.2695L14.5682 41.1523L15.1795 41.8066L15.5272 41.8691L16.328 41.4668L16.4862 40.5859L15.8749 39.9316L15.5272 39.8691ZM36.6366 41.1855L35.8358 41.5859L35.6776 42.4688L36.2889 43.123L36.6366 43.1855L37.4374 42.7832L37.5956 41.9023L36.9842 41.248L36.6366 41.1855ZM19.3436 42.2715L18.5428 42.6738L18.3846 43.5547L18.9959 44.2109L19.3436 44.2715L20.1444 43.8711L20.3026 42.9883L19.6893 42.334L19.3436 42.2715ZM32.5604 43.1152L31.7596 43.5156L31.6014 44.3984L32.2127 45.0527L32.5604 45.1152L33.3612 44.7129L33.5194 43.832L32.9081 43.1758L32.5604 43.1152ZM23.6288 43.6738L22.826 44.0742L22.6698 44.957L23.2811 45.6113L23.6288 45.6738L24.4295 45.2715L24.5877 44.3906L23.9745 43.7363L23.6288 43.6738ZM28.1288 43.9434L27.328 44.3438L27.1698 45.2266L27.7831 45.8809L28.1288 45.9434L28.9295 45.541L29.0877 44.6602L28.4764 44.0059L28.1288 43.9434ZM40.4159 47.1582L46.3905 60.8145L38.5135 59.9395L34.0487 66.4629L28.6034 53.6309C29.0043 53.4472 29.3843 53.2035 29.7127 52.875L31.742 50.8457L34.3944 51.9453H34.3963C36.3432 52.7507 38.6013 51.8141 39.4081 49.8672L39.4159 49.8496L40.4159 47.1582ZM13.117 48H13.5663L14.6366 49.9629L14.5916 49.8672C15.3983 51.8139 17.658 52.7522 19.6053 51.9453L22.2577 50.8457L24.287 52.875C24.6187 53.2067 25.0027 53.4527 25.4081 53.6367L19.951 66.4629L15.4862 59.9395L7.59751 60.8164L13.117 48Z" fill="#E4B564"/>
</svg>

<svg width="54" height="71" fill="none" xmlns="http://www.w3.org/2000/svg"><path d="M27 .006c-.984 0-1.968.372-2.713 1.117l-2.03 2.031-2.652-1.1h-.002a3.851 3.851 0 00-5.011 2.077l-.006.01L13.476 7h-2.638A3.854 3.854 0 007 10.838v2.639l-2.858 1.11-.01.005a3.853 3.853 0 00-2.077 5.013l1.1 2.653-2.03 2.03a3.852 3.852 0 00-.002 5.425l2.03 2.03-1.1 2.652v.002a3.852 3.852 0 002.078 5.011l.01.004L7 40.523v3.64A3.854 3.854 0 0010.838 48h.101L4.402 63.184l10.111-1.123 5.85 8.546 6.643-15.619 6.63 15.621 5.85-8.548 10.123 1.124-7.152-16.35H43a3.854 3.854 0 003.838-3.837v-2.463l3.013-1.12.018-.007a3.852 3.852 0 002.076-5.014l-1.1-2.652 2.032-2.03a3.854 3.854 0 000-5.427l-2.031-2.03 1.1-2.651a3.854 3.854 0 00-2.077-5.014l-.01-.004-2.86-1.11v-2.638A3.854 3.854 0 0043.163 7h-2.639l-1.111-2.86-.004-.01a3.852 3.852 0 00-5.014-2.075l-2.652 1.1-2.03-2.032A3.824 3.824 0 0027 .006zm0 1.988c.468 0 .936.182 1.299.545l2.974 2.973 3.887-1.61a1.821 1.821 0 012.4.994L39.156 9h4.006C44.19 9 45 9.81 45 10.838v4.006l4.103 1.594a1.822 1.822 0 01.994 2.4l-1.609 3.887 2.973 2.974a1.824 1.824 0 010 2.6l-2.973 2.973 1.61 3.888a1.82 1.82 0 01-.993 2.399l-4.267 1.586v3.853A1.824 1.824 0 0143 44.836h-3.856l-1.586 4.267a1.822 1.822 0 01-2.398.995l-3.887-1.612-2.974 2.975a1.821 1.821 0 01-2.598 0l-2.975-2.975-3.886 1.612a1.822 1.822 0 01-2.4-.996l-.022-.05L14.754 46h-3.916A1.823 1.823 0 019 44.162v-5.006L4.896 37.56a1.822 1.822 0 01-.996-2.4l1.612-3.887L2.537 28.3a1.821 1.821 0 01.002-2.598l2.975-2.974-1.612-3.887a1.822 1.822 0 01.996-2.4L9 14.843v-4.006C9 9.812 9.812 9 10.838 9h4.008l1.593-4.104a1.822 1.822 0 012.4-.994l3.887 1.61 2.975-2.973A1.83 1.83 0 0127 1.994zm1.129 6.063l-.801.402-.158.88.611.655.348.063.8-.4.159-.884-.612-.654-.347-.062zm-4.502.27l-.801.402-.158.88.613.655.346.062.803-.4.156-.883-.611-.654-.348-.063zm8.933.558l-.8.402-.159.881.612.654.347.063.801-.4.158-.883-.61-.655-.349-.062zm-13.216.844l-.801.4-.158.883.61.654.349.063.8-.403.159-.88-.614-.657-.345-.06zm17.293 1.086l-.801.402-.158.88.61.655.349.063.8-.4.159-.884-.612-.654-.347-.063zm-21.11 1.316l-.8.402-.159.881.612.656.347.06.801-.4.158-.882-.613-.655-.346-.062zm24.58 1.559l-.8.402-.159.883.614.654.345.06.801-.4.158-.883-.611-.654-.348-.063zm-27.656 1.742l-.8.4-.159.883.613.654.346.063.803-.403.156-.883-.611-.654-.348-.06zm30.32 1.898l-.8.4-.159.883.614.655.345.062.803-.402.156-.883-.611-.654-.348-.06zm-5.832 1.61L24 31.878l-6.939-6.94-2.12 2.122L24 36.12l15.06-15.06-2.12-2.122zm-26.666.437l-.8.402-.159.881.614.656.345.061.801-.4.158-.883-.611-.655-.348-.062zm34.145 2.15l-.803.403-.156.88.611.655.348.062.8-.4.159-.883-.614-.654-.345-.063zm-35.262 2.22l-.8.4-.159.882.611.655.348.062.8-.402.16-.881-.612-.654-.348-.063zM45 26l-.8.4v.002l-.16.881.612.654L45 28l.8-.402.159-.881-.612-.654L45 26zM9.156 28.254l-.8.402-.159.881.611.654.348.063.8-.4.16-.883-.612-.655-.348-.062zm35.262 2.219l-.803.4-.156.883.611.654.348.063.8-.403.159-.88-.614-.655-.345-.062zm-34.145 2.15l-.8.4-.159.883.614.654.345.063.801-.402.158-.881-.611-.655-.348-.062zm32.498 2.047l-.8.402-.159.881.614.654.345.063.803-.4.156-.883-.611-.655-.348-.062zm-30.32 1.898l-.8.403-.159.883.613.654.346.06.803-.4.156-.883-.611-.654-.348-.063zm27.656 1.74l-.8.403-.159.883.614.654.345.06.803-.4.156-.883-.611-.654-.348-.062zm-24.58 1.561l-.8.4-.159.883.612.655.347.062.801-.402.158-.881-.611-.654-.348-.063zm21.11 1.316l-.801.4-.158.884.61.654.349.063.8-.403.159-.88-.612-.655-.347-.063zm-17.293 1.087l-.801.402-.158.88.61.657.349.06.8-.4.159-.883-.614-.654-.345-.063zm13.216.843l-.8.4-.159.883.612.655.347.062.801-.402.158-.881-.61-.656-.349-.06zm-8.931.559l-.803.4-.156.883.611.654.348.063.8-.402.159-.881-.614-.655-.345-.062zm4.5.27l-.801.4-.158.883.613.654.346.062.8-.402.159-.88-.612-.655-.347-.063zm12.287 3.214l5.975 13.657-7.877-.875-4.465 6.523-5.446-12.832a3.798 3.798 0 001.11-.756l2.029-2.03 2.652 1.1h.002a3.852 3.852 0 005.012-2.078l.008-.017 1-2.692zM13.117 48h.45l1.07 1.963-.045-.096a3.853 3.853 0 005.013 2.078l2.653-1.1 2.029 2.03c.332.332.716.578 1.121.762l-5.457 12.826-4.465-6.523-7.888.876L13.117 48z" fill="#E4B564"/></svg>
